www/assets/icons/web_stories.svg

<svg width="24" height="24" viewBox="0 0 24 24" xmlns="http://www.w3.org/2000/svg" fill='currentColor'><path d="M16.75 4C17.85 4 18.75 4.9 18.75 6V18C18.75 19.1 17.85 20 16.75 20V4ZM1.75 20C1.75 21.1 2.65 22 3.75 22H12.75C13.85 22 14.75 21.1 14.75 20V4C14.75 2.9 13.85 2 12.75 2H3.75C2.65 2 1.75 2.9 1.75 4V20ZM20.75 18C21.58 18 22.25 17.33 22.25 16.5V7.5C22.25 6.67 21.58 6 20.75 6V18Z"/></svg>

<svg xmlns="http://www.w3.org/2000/svg" width="24" height="24" viewBox="0 0 24 24" fill='currentColor'><path d="M16.75 4c1.1 0 2 .9 2 2v12c0 1.1-.9 2-2 2zm-15 16c0 1.1.9 2 2 2h9c1.1 0 2-.9 2-2V4c0-1.1-.9-2-2-2h-9c-1.1 0-2 .9-2 2zm19-2c.83 0 1.5-.67 1.5-1.5v-9c0-.83-.67-1.5-1.5-1.5z"/></svg>
